svgs/solid/watch.svg

<svg xmlns="http://www.w3.org/2000/svg" viewBox="0 0 384 512"><!--! Font Awesome Pro 6.2.0 by @fontawesome - https://fontawesome.com License - https://fontawesome.com/license (Commercial License) Copyright 2022 Fonticons, Inc. --><path d="M112 0H272c26.5 0 48 21.5 48 48V72.2C283.7 46.8 239.6 32 192 32s-91.7 14.8-128 40.2V48C64 21.5 85.5 0 112 0zM64 464V439.8c36.3 25.3 80.4 40.2 128 40.2s91.7-14.8 128-40.2V464c0 26.5-21.5 48-48 48H112c-26.5 0-48-21.5-48-48zM384 256c0 106-86 192-192 192S0 362 0 256S86 64 192 64s192 86 192 192zM192 152c-13.3 0-24 10.7-24 24v80c0 8 4 15.5 10.7 20l48 32c11 7.4 25.9 4.4 33.3-6.7s4.4-25.9-6.7-33.3L216 243.2V176c0-13.3-10.7-24-24-24z"/></svg>

<svg xmlns="http://www.w3.org/2000/svg" viewBox="0 0 384 512"><!--! Font Awesome Pro 6.1.2 by @fontawesome - https://fontawesome.com License - https://fontawesome.com/license (Commercial License) Copyright 2022 Fonticons, Inc. --><path d="M272 0C298.5 0 320 21.49 320 48V72.15C283.7 46.84 239.6 32 192 32C144.4 32 100.3 46.84 64 72.15V48C64 21.49 85.49 0 112 0H272zM64 464V439.8C100.3 465.2 144.4 480 192 480C239.6 480 283.7 465.2 320 439.8V464C320 490.5 298.5 512 272 512H112C85.49 512 64 490.5 64 464zM384 256C384 362 298 448 192 448C85.96 448 0 362 0 256C0 149.1 85.96 64 192 64C298 64 384 149.1 384 256zM168 176V256C168 264 172 271.5 178.7 275.1L226.7 307.1C237.7 315.3 252.6 312.3 259.1 301.3C267.3 290.3 264.3 275.4 253.3 268L216 243.2V176C216 162.7 205.3 152 191.1 152C178.7 152 167.1 162.7 167.1 176L168 176z"/></svg>
